!!!COM: Scriabin, Alexander
!!!OTL@@FR: Mouvement no 1
!!!OTL@@EN: Movement No. 1
!!!OPR@@FR: Sonate no 2
!!!OPR@@EN: Sonata No. 2
!!!OPS: 19
!!!ONM: 1
!!!ODT: 1897
!!!AGN: Sonata movement
**kern	**kern	**dynam
*staff2	*staff1	*staff1/2
*Ipiano	*Ipiano	*
*clefF4	*clefG2	*
*k[f#c#g#d#a#]	*k[f#c#g#d#a#]	*
*g#:	*g#:	*
*M3/4	*M3/4	*
16GGG# 16GG#	[16D# [16G# [16d#	p
=1	=1	=1
6DD# 6D#	6D#] 6G#] 6d#]	.
12DD# 12D#	12d# 12dd#	.
*	*^	*
4BB 4B	4d# 4e#	12G# 12g#L	>
.	.	12G# 12g#	)
.	.	12G# 12g#J	]
*	*v	*v	*
8.r	8.r	.
16AAA# 16AA#	[16D# [16F## [16c# [16d#	.
=2	=2	=2
6DD# 6D#	6D#] 6F##] 6c#] 6d#]	.
12DD# 12D#	12d# 12dd#	.
*	*^	*
4C# 4c#	4d#	12F##L 12f##	>
.	.	12F## 12f##	)
.	.	12F##J 12f##	]
*	*v	*v	*
8.r	8.r	.
16BBB 16BB	[16G# [16en [16g#	.
=3	=3	=3
8.EEL 8.E	8.G#L] 8.e] 8.g#]	<
16CC#J 16C#	[16A#J [16e [16g# [16a#	.
8.GG#L 8.G#	8.A#L] 8.e] 8.g#] 8.a#]	.
16DD#J 16D#	[16BJ [16g# [16b	.
8.GG#L 8.G#	8.BL] 8.g#] 8.b]	.
16EEJ 16E	[16G#J [16c# [16g#	.
!!LO:LB:g=original
=4	=4	=4
6GG# 6G#	6G#] 6c#] 6g#]	.
12GG# 12G#	12g# 12gg#\	p
*	*^	*
4E 4A# 4e	4g# 4a#	12c#L 12cc#	>
.	.	12c# 12cc#	)
.	.	12c#J 12cc#	]
*	*v	*v	*
8.r	8.r	.
16CC# 16C#	[16A# [16e [16g# [16a#	mf
=5	=5	=5
8.GG#L 8.G#	8.A#L] 8.e] 8.g#] 8.a#]	.
16DD#J 16D#	[16BJ [16g# [16b	.
8.GG#L 8.G#	8.BL] 8.g#] 8.b]	.
16EEJ 16E	[16G#J [16c# [16g#	.
8.GG#L 8.G#	8.G#L] 8.c#] 8.g#]	.
*	*^	*
16EEJ 16E	[16c##	[16G#J [16g#	.
=6	=6	=6	=6
2AA# 2A#	2c##]	4G#] 4g#]	.
.	.	4A# 4a#	sf
*	*v	*v	*
4EE 4E	4C## 4G# 4c##	p
=7	=7	=7
6DD# 6D#	4D# 4F## 4d#	.
[12CC#X [12C#X	.	.
12CC#L] 12C#]	4E 4G# 4e	.
12BBB 12BB	.	.
12AAA#J 12AA#	.	.
6BBB 6BB	4G# 4e 4g#	.
12GGG# 12GG#	.	.
!!LO:LB:g=original
=8	=8	=8
6DD# 6D#	4A# 4d# 4f## 4a#	.
[12CC# [12C#	.	.
12CC#L] 12C#]	4B 4e 4g# 4b	.
12BBB 12BB	.	.
12AAA#J 12AA#	.	.
6BBB 6BB	[4e [4g# [4ee	.
12GGG# 12GG#	.	.
=9	=9	=9
12CC#L 12C#	4e] 4g#] 4ee]	.
12BBB 12BB	.	.
12AAA#J 12AA#	.	.
6BBB 6BB	4e 4g# 4ee	<
12GGG# 12GG#	.	.
6CC# 6C#	4e 4an 4ee	.
12GGG# 12GG#	.	.
=10	=10	=10
6CC## 6C##	4e 4a#X 4ee	.
12GGG# 12GG#	.	.
12DD#L 12D#	4d# 4f## 4dd#	mf
12DDD#J 12DD#	.	.
12r	.	.
8.r	8.r	.
16DD# 16D#	[16A# [16d# [16a#	p
=11	=11	=11
6AA# 6A#	6A#] 6d#] 6a#]	.
12AA# 12A#	12a# 12aa#\	.
*	*^	*
4F#X 4f#X	4a# 4b#	12d#L 12dd#	>
.	.	12d# 12dd#	)
.	.	12d#J 12dd#	]
*	*v	*v	*
8.r	8.r	.
16EE# 16E#	[16A# [16c## [16g# [16a#	.
!!LO:LB:g=original
=12	=12	=12
6AA# 6A#	6A#] 6c##] 6g#] 6a#]	.
12AA# 12A#	12a# 12aa#\	.
*	*^	*
4G# 4g#	4a#	12c##L 12cc##	>
.	.	12c## 12cc##	)
.	.	12c##J 12cc##	]
*	*v	*v	*
12r	4r	.
12r	.	.
!	!	!LO:DY:a=2
12FF#\L	.	pp
=13	=13	=13
12BB	6f# 6b 6dd#	.
12F#J	.	.
12BBL	[12e [12f# [12cc#X	.
12F#	12eL] 12f#] 12cc#]	.
12BJ	12d# 12f# 12b	.
12F#L	12c#XJ 12f# 12a#	.
12B	6d# 6f# 6b	.
12f#J	.	.
12GG#L	[12d# [12b [12dd#	.
=14	=14	=14
12D#	6d#] 6b] 6dd#]	.
12BJ	.	.
12E#L	12dd#	.
12B	12d#L	>
12d#J	12d#	)
12BL	12d#J	]
12D#	4r	.
12GG#J	.	.
!	!	!LO:DY:a=2
12AA#L	.	pp
=15	=15	=15
12D#	6a# 6dd# 6ff#	.
12A#J	.	.
12D#L	[12g# [12a# [12ee#	.
12A#	12g#L] 12a#] 12ee#]	.
12d#J	12f# 12a# 12dd#	.
12A#L	12e#J 12a# 12cc##	.
12d#	6f# 6a# 6dd#	.
12a#J	.	.
12BBL	[12d# [12a [12ff#	.
!!LO:LB:g=original
=16	=16	=16
12F#	6d#] 6a] 6ff#]	.
12d#J	.	.
12BL	12ff#	.
12d#	12bL	>
12bJ	12b	)
12d#L	12bJ	]
12F#	12r	<
12BBJ	12r	.
12EEL	[12en [12b [12gg#	.
=17	=17	=17
12BB	6e] 6b] 6gg#]	.
12BJ	.	.
12BBL	12b 12ee 12gg#	.
12E	12g#L	>
12eJ	12g#	)
12EL	12g#J	]
12B	12r	.
12bJ	12r	.
12CC#L	[12e [12b [12ggn	.
=18	=18	=18
12E	6e] 6b] 6gg]	.
12BJ	.	.
12EL	12b 12ee 12gg	.
12B	12gL	>
12eJ	12g	)
12BL	12gJ	]
12e	4r	.
12bJ	.	.
12FF#L	.	.
=19	=19	=19
12D#	12r	mf
12BJ	12f#L	.
12F#L	12dd#J	.
12f#	12a#L	.
12d#J	12b	.
12BL	12gg#XJ	.
12d#J 12b	12ff#L	.
12r	12.ee	>
12r	.	)
.	24dd#J	)
*clefG2	*	*
!!LO:LB:g=original
=20	=20	=20
12r	6dd#	]
12F#L	.	.
12eJ	[12b#	.
12a#L	6b#]	.
12f#	.	.
12eJ	[12dd#	.
4ff#	12dd#L]	.
.	12cc#	>
.	12dd#J	]
*clefF4	*	*
=21	=21	=21
*	*^	*
4G# 4d#	4b	12bnL	<
.	.	12ff#	.
.	.	12ee#J	.
4D# 4A# 4d#	4f#	12dd#L	mf
.	.	12ee#	.
.	.	12aa#J	.
4r	4r	12ff#L	.
.	.	12.een	.
.	.	24dd#J	.
*	*v	*v	*
*clefG2	*	*
=22	=22	=22
12r	8dd#L	.
12F#L	.	.
.	[8b#J	.
12eJ	.	.
12a#L	8b#L]	>
12f#	.	.
.	[8dd#J	.
12eJ	.	.
8ff#	12dd#L]	.
.	12cc#	.
8r	.	.
.	12dd#J	.
*clefF4	*	*
=23	=23	=23
*^	*	*
4B 4f#	2.B 2.e	[4bn	p
4G# 4g#	.	12bL]	.
.	.	12cc#	.
.	.	12gg#J	.
4C#	.	12eeL	.
.	.	12dd#	.
.	.	12cc#J	.
!!LO:LB:g=original
=24	=24	=24	=24
4G# 4d#	2.G# 2.c#	[4g#	.
4E 4e	.	12g#L]	<
.	.	12a#	(
.	.	12bJ	[
4GG#	.	12dd#L	>
.	.	12cc#	)
.	.	12g#J	]
=25	=25	=25	=25
6C#	2G#	12d#L	<
.	.	12e	.
12GG#	.	12g#J	.
[4C#	.	8bL	.
.	.	[8a#J	.
*v	*v	*	*
4C#] 4B 4e	6a#]	.
.	12g#	.
=26	=26	=26
*^	*	*
4F#	2.e	4.g#	.
4G#	.	.	>
.	.	8f#	.
4A#	.	8dd#L	.
.	.	8cc#J	.
*clefG2	*clefG2	*	*
=27	=27	=27	=27
2.B 2.e	4An 4f#	8eeL	pp
.	.	8cc#J	.
.	2G# 2g#	12eeL	.
.	.	12.b	.
.	.	24gg#J	.
.	.	4gg#	.
!!LO:LB:g=original
=28	=28	=28	=28
2B 2e	4An 4f#	12r	.
.	.	12eeL	.
.	.	12cc#J	.
.	4G# 4g#	12eeL	.
.	.	12.b	.
.	.	24eeeJ	.
*v	*v	*	*
*clefF4	*	*
4C# 4B 4g#	4eee	.
=29	=29	=29
*	*^	*
2.C# 2.B	2.e	12r	pp
.	.	12g#L	<
.	.	12a#XJ	.
.	.	8bL	.
.	.	[8a#J	.
.	.	8a#L]	.
.	.	8g#J	.
=30	=30	=30	=30
6D# 6A#	6d#	2f#	.
12FF# 12F#	12A# 12c#	.	>
12BB 12F#	4B 4d#	.	]
12F#/L	.	.	.
12G#J	.	.	.
*	*v	*v	*
12B/L	4r	.
12c#	.	.
12eJ	.	.
=31	=31	=31
*^	*	*
*^	*	*	*
*^	*	*	*	*
4B\	2.B\	12ryy	12f#L	[4b	p
.	.	[6e\	12e	.	.
.	.	.	12f#J	.	.
4G#\	.	2e\]	[4g#	16bLL]	.
.	.	.	.	16cc#	.
.	.	.	.	16aa#	.
.	.	.	.	16gg#JJ	.
4C#\	.	.	8g#L]	12eeL	.
.	.	.	.	12dd#	.
.	.	.	[8G#J	.	.
.	.	.	.	12cc#J	.
!!LO:LB:g=original
=32	=32	=32	=32	=32	=32
4G#\]	2.G#\	12ryy	12d#L	[4g#	.
.	.	[6c#\	12c#	.	.
.	.	.	12d#J	.	.
4E\	.	2c#\]	4e	20g#LL]	<
.	.	.	.	20f##	(
.	.	.	.	20g#	(
.	.	.	.	20a#	(
.	.	.	.	20bJJ	[
4GG#\	.	.	4ryy	12dd#L	>
.	.	.	.	12cc#	)
.	.	.	.	12g#J	]
*	*	*v	*v	*	*
*	*v	*v	*	*
=33	=33	=33	=33
*	*	*^	*
6C#	4.G#	10.ryy	20d#LL	.
.	.	.	20e	.
.	.	.	20f#X	.
.	.	[10e	20e	.
12GG#	.	.	.	.
.	.	.	20g#JJ	.
4.C#	.	2e_	8bL	.
.	8A#	.	[8a#J	.
.	4B	.	8a#L]	.
8C#	.	.	8g#J	.
=34	=34	=34	=34	=34
*	*^	*	*	*
4F#\	2B/	4ryy	4e]	[4g#	.
4G#\	.	4e	4ryy	12g#L]	.
.	.	.	.	12f#	.
.	.	.	.	12e#J	.
*	*	*	*v	*v	*
4A#\	4A#/	8enL	24f#/LL	.
.	.	.	24ff#	.
.	.	.	24ee#	.
.	.	8f#J	24een	.
.	.	.	24dd#	.
.	.	.	24cc#JJ	.
*	*v	*v	*	*
!!LO:LB:g=original
=35	=35	=35	=35
4A 4f#	2.B	20eeLL	pp
.	.	20dd#	.
.	.	20ff#	.
.	.	20ee	.
.	.	20cc#JJ	.
2G# 2e 2g#	.	20eeLL	.
.	.	20dd#	.
.	.	20cc#	.
.	.	20.b	.
.	.	40gg#JJ	.
.	.	4gg#	.
=36	=36	=36	=36
4A 4f#	2.B 2.e	28r	.
.	.	28eeLL	.
.	.	28cc#	.
.	.	28gg#	.
.	.	28ff#	.
.	.	28ee	.
.	.	28cc#JJ	.
4G# 4g#	.	32eeLLL	.
.	.	32dd#	.
.	.	32ddn	.
.	.	32ee	.
.	.	32cc#	.
.	.	32ccn	.
.	.	32.b	.
.	.	64eeeJJJ	.
4C# 4B 4g#	.	4eee	.
*v	*v	*	*
=37	=37	=37
2.r	12r	.
.	12g#L	<
.	12a#XJ	(
.	8bL	[
.	[8a#J	>
.	8a#L]	)
.	8g#J	]
!!LO:LB:g=original
=38	=38	=38
*	*^	*
4r	12r	[2.c#	.
.	12G#L	.	<
.	12A#J	.	(
*^	*	*	*
4.FF#	[2E	8BL	.	[
.	.	[8A#J	.	>
.	.	8A#L]	.	)
8GG#	.	8G#J	.	]
=39	=39	=39	=39	=39
4GG#	2E]	2.c#]	12r	.
!	!	!	!	!LO:HP:b=1
.	.	.	12g#L	<
.	.	.	12a#J	(
4CC#	.	.	6cc#	[
!	!	!	!	!LO:HP:b=1
.	.	.	12b	>
*v	*v	*	*	*
4r	.	12bL	)
.	.	12a#	)
.	.	12g#J	]
=40	=40	=40	=40
4r	12r	[2.c#	.
.	12G#L	.	<
.	12A#J	.	(
*^	*	*	*
[4FF#	2E	6c#	.	[
.	.	12B	.	>
6FF#]	.	12BL	.	)
.	.	12A#	.	)
12GG#	.	12G#J	.	]
*	*	*v	*v	*
*v	*v	*	*
=41	=41	=41
12EEL	12c#L]	.
12G#	12g#	.
12C#J	12a#J	.
4c#	12bL	.
.	12a#	.
.	12g#J	.
12BL	4d#	.
12D#	.	.
12GG#J	.	.
!!LO:LB:g=original
=42	=42	=42
16EELL	12c#L	.
16GG#	.	.
.	12g#	.
16G#	.	.
.	12a#J	.
16GG#JJ	.	.
16C#LL	12bL	.
16c#	.	.
.	12a#	.
16C#	.	.
.	12g#J	.
16GG#JJ	.	.
16D#LL	[4f#	.
16B	.	.
16D#	.	.
16GG#JJ	.	.
=43	=43	=43
20GGG#LL	16f#LL]	.
20GG#	.	.
.	16g#	.
20B	.	.
.	16dd#	.
20D#	.	.
.	16bJJ	.
20GG#JJ	.	.
20CC#LL	4e	.
20GG#	.	<
20B	.	.
20E	.	.
20GG#JJ	.	.
20GGG#LL	12f#L	.
20GG#	.	.
.	12g#	.
20B	.	.
20D#	.	.
.	12f#J	.
20GG#JJ	.	.
=44	=44	=44
24CCC#LL 24CC#	12eL	.
24GG#	.	.
24E	12g#	.
24GG#	.	.
24E	12eeJ	.
24BJJ	.	.
24C#LL	12b/L	.
24G#	.	.
24e	12cc#	.
24B	.	.
24c#	12aa#J	.
24eJJ	.	.
*	*^	*
24r	4e 4a#	12gg#L	.
24FFF#LL 24FF#	.	.	.
24A#	.	12ff#	.
24E	.	.	.
24F#	.	12dd#J	.
24f#JJ	.	.	.
!!LO:LB:g=original
=45	=45	=45	=45
24BBBBLL 24BBB	12d#L	12cc#L	.
24FF#	.	.	.
24F#	12f#	12a#	.
24C#	.	.	.
24D#	12BJ	12bJ	.
24G#JJ	.	.	.
24F#	4r	12cc#L	.
24F#LL	.	.	.
24f#	.	12b	.
24c#	.	.	.
24d#	.	12g#J	.
24bJJ	.	.	.
!	!	!	!LO:DY:a=1
24r	12f#\L	8f#L	mf
24c#LL	.	.	.
24B	12d#	.	.
24G#	.	8dd#J	.
24F#	12B<J	.	.
[24FF#JJ	.	.	.
=46	=46	=46	=46
24BBB 24FF#]	2ee	12r	.
!	!	!	!LO:DY:a=2
24F#LL	.	.	pp
!	!	!	!LO:DY:a=1
24e	.	12gg#L	pp
24B	.	.	.
24c#	.	12eeeJ	.
24g#JJ	.	.	.
*clefG2	*	*	*
24r	.	12bbL	.
24g#LL	.	.	.
24ee	.	12ccc#	.
24b	.	.	.
24cc#	.	12ggg#J	.
24gg#JJ	.	.	.
!	!	!	!LO:DY:b=1
16a#LL	8dd#L	24r	mf
!	!	!	!LO:DY:a=1
.	.	24ff#LL	pp
16e	.	.	.
.	.	24fff#	.
*clefF4	*	*	*
16F#	8eeJ	24gg#	.
.	.	24aa#	.
[16FF#JJ	.	.	.
.	.	24ccc#JJ	.
!!LO:LB:g=original
=47	=47	=47	=47
12BBBL 12FF#]	8ff#L	24r	.
.	.	24aa#LL	.
12F#	.	24fff#	.
.	8gg#J	24bb	.
12d#J	.	24ccc#	.
.	.	24ddd#JJ	.
*clefG2	*	*	*
12f#L 12dd#	8aa#L	24r	.
.	.	24fff#LL	.
12d#	.	24ccc#	.
.	8bbJ	24bb	.
*clefF4	*	*	*
12F#J	.	24ff#	.
.	.	24dd#JJ	.
16G#\LL	8ff#L	24r	.
.	.	24d#LL	.
16F#	.	.	.
.	.	24a#	.
16BB	8dd#J	24f#	.
.	.	24g#	.
[16FF#JJ	.	.	.
.	.	24bJJ	.
=48	=48	=48	=48
12BBBL 12FF#\]	8.eeL	24r	.
.	.	24g#LL	.
12F#	.	24ee	.
.	.	24b	.
12eJ	.	24cc#	.
.	16dd#J	.	.
.	.	24gg#JJ	.
12G#L 12B	4cc#	24r	.
.	.	24ggg#LL	.
12C# 12c#	.	24ccc#	.
.	.	24fff#	.
12BJ 12g#	.	24eee	.
.	.	24gg#JJ	.
12A#L 12f#	4dd#	24r	.
.	.	24eLL	.
12F#	.	24a#	.
.	.	24f#	.
12FF#J	.	24g#	.
.	.	24a#JJ	.
*	*v	*v	*
!!LO:LB:g=original
=49	=49	=49
12BBBL	24d# 24b	.
.	24F#LL	.
12FF#	24f#	.
.	24c#	.
12F#J	24d#	.
.	24g#JJ	.
4D# 4B 4d#	24f#	.
.	24f#LL	.
.	24ff#	.
.	24cc#	.
.	24dd#	.
.	24gg#JJ	.
!	!	!LO:DY:a=2
8F#L	24ff#LL	mf
.	24dd#	.
.	24b	.
8d#J	24g#	.
.	24f#	.
.	[24F#JJ	.
=50	=50	=50
*	*^	*
!	!	!	!LO:DY:b=1
12BBBL 12FF#	2F#] 2e	24r	mf
!	!	!	!LO:DY:a=1
.	.	24gg#LL	pp
*clefG2	*	*	*
!	!	!	!LO:DY:a=2
12g#	.	24eee	pp
.	.	24bb	.
12eeJ	.	24ccc#	.
.	.	24ggg#JJ	.
*^	*	*	*
12g#L	12bL	.	24gg#	.
.	.	.	24bbbLL	.
12c#	12cc#	.	24eee	.
.	.	.	24aaa#	.
12bJ	12gg#J	.	24ggg#	.
.	.	.	24ccc#JJ	.
*	*	*v	*v	*
*clefF4	*clefF4	*	*
!	!	!	!LO:DY:a=2
16ELL 16A#	8d#L	24a#	mf
.	.	24ff#/LL	.
16FF#JJ	.	.	.
.	.	24fff#	.
8r	8eJ	24gg#	.
.	.	24aa#	.
.	.	24ccc#JJ	.
!!LO:LB:g=original
=51	=51	=51	=51
*	*	*^	*
!	!	!	!	!LO:DY:a=2
16D#LL 16F# 16B	8f#L	4dd# 4ff#	24r	mf
.	.	.	24aa#LL	.
16BBBJJ 16FF#	.	.	.	.
.	.	.	24fff#	.
8r	8g#J	.	24bb	.
.	.	.	24ccc#	.
.	.	.	24ddd#JJ	.
*	*	*v	*v	*
2F# 2d#	8a#L	24r	.
.	.	24fff#LL	.
.	.	24ccc#	.
.	8bJ	24bb	.
.	.	24ff#	.
.	.	24dd#JJ	.
.	8f#L	24r	.
.	.	24dd#LL	.
.	.	24aa#	.
.	8d#J	24ff#	.
.	.	24gg#	.
.	.	24bbJJ	.
=52	=52	=52	=52
*	*	*	*^
!	!	!	!LO:DY:a=2	!LO:DY:a=1
12eL	8.eL	24f# 24b 24ff#	mf	pp
*	*	*	*v	*v
.	.	24bbLL	.
12F#	.	24gg#	.
.	.	24ff#	.
12BBJ	.	24cc#	.
.	16d#J	.	.
.	.	24g#JJ	.
12c#L	4c#	24e 24b 24ff#	.
.	.	24ddd#LL	.
12F#	.	24gg#	.
.	.	24ff#	.
12BBJ	.	24b	.
.	.	24g#JJ	.
12d#L	4d#	24f# 24a# 24ff#	.
.	.	24fff#LL	.
12F#	.	24ddd#	.
.	.	24bb	.
12BBJ	.	24aa#	.
.	.	24ff#JJ	.
!!LO:LB:g=original
=53	=53	=53	=53
12BL	4B	24f# 24dd# 24bb	.
.	.	24ddd#LL	.
12F#	.	24ff#	.
.	.	24ccc#	.
12BBJ	.	24ddd#	.
.	.	24fff#JJ	.
*v	*v	*	*
12f#\L	24bbLL	.
.	24ff#	.
12F#	24dd#	.
.	24gg#	.
12BBJ	24dd#	.
.	24f#JJ	.
12F#\L	24cc#LL	.
.	24dd#	.
12BB	24ff#	.
.	24b	.
12FF#J	24d#	.
.	[24F#JJ	.
=54	=54	=54
*^	*	*
12EL	8.EL	24F#] 24B 24f#	.
.	.	24bLL	.
12FF#	.	24g#	.
.	.	24f#	.
12BBBJ	.	24c#	.
.	16D#J	.	.
.	.	24G#JJ	.
12C#L	4C#	24E 24B 24f#	.
.	.	24dd#LL	.
12FF#	.	24g#	.
.	.	24f#	.
12BBBJ	.	24B	.
.	.	24G#JJ	.
12D#L	4D#	24F# 24A# 24f#	.
.	.	24ff#LL	.
12FF#	.	24dd#	.
.	.	24b	.
12BBBJ	.	24a#	.
.	.	24f#JJ	.
!!LO:LB:g=original
=55	=55	=55	=55
12BBL	2BB	24F# 24d# 24b	.
.	.	24dd#LL	.
12FF#	.	24f#	.
.	.	24cc#	.
12BBBJ	.	24dd#	.
.	.	24ff#JJ	.
12F#L	.	24bLL	.
.	.	24f#	.
12FF#	.	24d#	.
.	.	24g#	.
12BBBJ	.	24d#	.
.	.	[24F#JJ	.
12D#L	4D#	24F#] 24A# 24f#	.
.	.	24ff#LL	.
12FF#	.	24dd#	.
.	.	24b	.
12BBBJ	.	24a#	.
.	.	24f#JJ	.
=56	=56	=56	=56
12BBL	2BB	24F# 24d# 24b	.
.	.	24dd#LL	.
12FF#	.	24f#	.
.	.	24cc#	.
12BBBJ	.	24dd#	.
.	.	24ff#JJ	.
12F#L	.	24bLL	.
.	.	24f#	.
12FF#	.	24d#	.
.	.	24g#	.
12BBBJ	.	24d#	.
.	.	[24F#JJ	.
12D#L	4D#	4F#] 4A# 4f#	.
.	.	.	.
12FF#	.	.	.
.	.	.	.
12BBBJ	.	.	.
.	.	.	.
!!LO:LB:g=original
=57	=57	=57	=57
.	.	[8qF#	.
12BBL	2BB	2F#] 2d# 2f# 2b	.
12FF#	.	.	.
12BBBJ	.	.	.
12BBBL	.	.	.
12BBBB	.	.	.
12BBBJ	.	.	.
*v	*v	*	*
12BBB\L	12F# 12d# 12f# 12b	.
12BBBBJ	12.r	.
24r	.	.
24BBBB 24BBB	[24F# [24B [24f#	pp
=58	=58	=58
6FF# 6F#	6F#] 6B] 6f#]	.
12FF# 12F#	12f# 12ff#	.
*	*^	*
.	8qg#	.	.
4D# 4d#	4f#	12BL 12b	>
.	.	12B 12b	)
.	.	12BJ 12b	]
[4BBB [4FF# [4BB	4F#	8F#L	.
.	.	8c#J	.
!!LO:LB:g=original
=59	=59	=59	=59
*^	*	*	*
2BBB] 2FF#] 2BB]	12r	[2F#	8F#L	.
*clefF4	*clefG2	*	*	*
!	!	!	!	!LO:HP:b=2
.	12f#L	.	.	<
.	.	.	8c#J	(
.	12ff#J	.	.	[
!	!	!	!	!LO:HP:b=2
.	12dd#L	.	4B 4d# 4f#	>
.	12cc#	.	.	)
.	12bJ	.	.	]
*	*	*v	*v	*
*v	*v	*	*
*clefF4	*	*
8BBB 8FF# 8BB	8F#] 8B 8d# 8f#	.
16r	16r	.
16DDDn 16DDn	[16F# [16dn [16f#	pp
=60	=60	=60
6AAn 6An	6F#] 6d] 6f#]	.
12AA 12A	12an 12aan\	.
*	*^	*
.	8qb	.	.
4F# 4f#	4a	12dnL 12ddn	>
.	.	12d 12dd	)
.	.	12dJ 12dd	]
[4DDn [4AA [4Dn	4An	8AnL	.
.	.	8eJ	.
=61	=61	=61	=61
*^	*	*	*
2DD] 2AA] 2D]	12r	2An	8AnL	.
*clefF4	*clefG2	*	*	*
.	12anL	.	.	.
.	.	.	8eJ	.
.	12aanJ	.	.	.
.	12ff#L	.	4dn 4f# 4an	.
.	12ee	.	.	.
.	12ddnJ	.	.	.
*	*	*v	*v	*
*clefF4	*clefF4	*	*
*k[]	*k[]	*k[]	*
8.r	8DL	4r	p
.	8AnJ	.	.
16DD 16D	.	.	.
!!LO:LB:g=original
=62	=62	=62	=62
*	*	*	*^
6GGG 6GG	2D 2B-	[4f	.	.
!	!	!	!LO:HP:a=2	!
12GGG 12GG	.	.	>	.
!	!	!	!	!LO:HP:b=1
12DDDL 12DD	.	12fL]	)	<
12DDD 12DD	.	12g	)	(
12DDDJ 12DD	.	12ddJ	]	[
*^	*	*	*	*
*	*	*^	*	*	*
4DD 4GG 4F\	8.r	8G/L	4B-	12b-L	.	.
.	.	.	.	12a	.	.
.	.	8dJ	.	.	.	.
.	.	.	.	12gJ	.	.
.	16GG 16G\	.	.	.	.	<
*	*	*	*	*	*v	*v
*	*	*v	*v	*	*
*	*v	*v	*	*
*v	*v	*	*
=63	=63	=63
*	*^	*
6CC 6C	2G 2e-	[4b-	.
!	!	!	!LO:HP:a=2
12CC 12C	.	.	>
12GGGL 12GG	.	12b-L]	)
12GGG 12GG	.	12cc	)
12GGGJ 12GG	.	12ggJ	]
*^	*	*	*
[4GG [4C	[4B-	4e-	12ee-L	.
.	.	.	12dd	.
.	.	.	12ccJ	.
=64	=64	=64	=64	=64
*	*	*v	*v	*
4GG] 4C]	12B-L]	4g	.
.	12c	.	.
.	12gJ	.	.
4GGG 4GG	12e-L	4r	.
.	12d	.	.
.	12cJ	.	.
8.r	8CL	4r	.
.	8GJ	.	.
16CC 16C	.	.	.
!!LO:LB:g=original
=65	=65	=65	=65
6FFF 6FF	2C 2A-	[4e-	<
12FFF 12FF	.	.	.
12CCCL 12CC	.	12e-L]	.
12CCC 12CC	.	12f	.
12CCCJ 12CC	.	12ccJ	.
*	*	*^	*
4CC 4FF	[4E-	4A-	12a-L	.
.	.	.	12g	.
.	.	.	12fJ	.
*	*	*v	*v	*
=66	=66	=66	=66
4r	12E-L]	4c	.
.	12F	.	.
.	12cJ	.	.
[4CCC [4CC	12A-L	4r	.
.	12G	.	.
.	12FJ	.	.
12CCCL] 12CC]	4C	4r	.
12FFF 12FF	.	.	.
12CCJ 12C	.	.	.
*v	*v	*	*
=67	=67	=67
12AAA-L 12AA-	4E- 4A- 4c 4e-	f
12GGG 12GG	.	.
12FFFJ 12FF	.	.
12CCCL 12CC	2F 2A- 2c 2f	.
12FFF 12FF	.	.
12CCJ 12C	.	<
12AAA-L 12AA-	.	.
12GGG 12GG	.	.
12FFFJ 12FF	.	.
!!LO:LB:g=original
=68	=68	=68
12CCCL 12CC	4A- 4e- 4f 4a-	.
12FFF 12FF	.	.
12CCJ 12C	.	.
12AAA-L 12AA-	4c 4f 4a- 4cc	.
12GGG 12GG	.	.
12FFFJ 12FF	.	.
12CCL 12C	6e- 6a- 6cc 6ee-	.
12FFFJ 12FF	.	.
12CCCL 12CC	[12f [12a- [12cc [12ff	.
=69	=69	=69
12AA-	6f] 6a-] 6cc] 6ff]	.
12A-J	.	.
12CL	12ee-	.
12A-	12fL	.
12e-J	12f	.
12A-L	12fJ	.
12C	4r	.
12FFJ	.	.
12CCC-L 12CC-	.	<
=70	=70	=70
12FF	12r	.
12FJ	12r	.
12C-L	12ee-	.
12A-	12fL	.
12e-J	12f	.
12A-L	12fJ	.
12C-	4r	.
12FFJ	.	.
12BBBB- 12BBB-	.	.
!!LO:LB:g=original
=71	=71	=71
*	*^	*
6FF 6F	12dL	[4a-	ff
.	12d	.	.
12FF 12F	12dJ	.	.
12BB-L 12B-	12r	12a-L]	.
12BB- 12B-	12r	12b-	.
12BB-J 12B-	12d 12dd	12ffJ	.
12A-L 12B- 12f	12dL 12dd	12ddL	.
12A- 12B- 12e-	12f 12ff	12ccn	.
12A-J 12B- 12d	12bb-J	12b-J	.
*	*v	*v	*
*clefG2	*	*
=72	=72	=72
16B-LL	8bb-L	p <
16g	.	(
16ee-	8cccJ	(
16ccJJ	.	(
16ffLL	8dddL	[ >
16ee-	.	)
16gg	8eee-J	)
16b-JJ	.	)
16ddLL	8bb-	]
16cc	.	.
16b-JJ	8B-	.
*clefF4	*	*
16BBBB- 16BBB-	.	ff
=73	=73	=73
*	*^	*
6FF 6F	12dL	[4a-	.
.	12d	.	.
12FF 12F	12dJ	.	.
12BB-L 12B-	12r	12a-L]	.
12BB- 12B-	12r	12b-	.
12BB-J 12B-	12d 12dd	12ffJ	.
12A-L 12B- 12f	12dL 12dd	12ddL	.
12A- 12B- 12e-	12f 12ff	12cc	.
12A-J 12B- 12d	12bb-J	12b-J	.
*	*v	*v	*
*clefG2	*	*
!!LO:LB:g=original
=74	=74	=74
16B-LL	8ddd-L	p
16g-	.	.
16gg-	8eee-J	.
16ee-JJ	.	.
16aa-LL	8fffL	.
16gg-	.	.
16bb-	8ggg-J	.
16dd-JJ	.	.
16ffLL	8ddd-	.
16ee-	.	.
16dd-JJ	8d-	.
16r	.	.
*clefF4	*clefF4	*
=75||	=75||	=75||
*k[f#c#g#d#a#]	*k[f#c#g#d#a#]	*
*8ba	*	*
16AAAA#LL 16AAA#	16E 16G# 16c#	ff
*X8ba	*	*
16E	16r	.
16c#	16r	.
*	*clefG2	*
16G#JJ	16gg#	.
16g#LL	16cc#LL	.
16c#	16cc#	.
16G#	16cc#JJ	.
16EJJ	16r	.
*	*clefF4	*
16DDD#LL 16DD#	4D# 4F## 4c#	.
16D#	.	.
16c# 16f##	.	.
16F##JJ	.	.
=76	=76	=76
16AAA#LL 16AA#	12E 12G# 12c#	.
16E	.	.
.	12r	.
16c#	.	.
*	*clefG2	*
.	12gg#	.
16G#JJ	.	.
16g#LL	12cc#L	.
16c#	.	.
.	12cc#	.
16G#	.	.
.	12cc#J	.
16EJJ	.	.
*	*clefF4	*
4EE- 4E-	4C# 4Gn 4c#	> ]
!!LO:LB:g=original
=77	=77	=77
8DDnL 8Dn	6Dn 6Gn 6B 6dn	p
8EEnJ 8En	.	.
*	*clefG2	*
.	12dn 12ddn	.
*	*^	*
8FF#L 8F#	4B	12DnL 12d	.
.	.	12D 12d	.
8GGnJ 8Gn	.	.	.
.	.	12DJ 12d	.
*	*v	*v	*
8DDL 8D	8.r	.
8BBBJ 8BB	.	.
.	16D# 16An 16d#	.
=78	=78	=78
8BBBL 8BB	6E 6G#X 6e	.
8CC#J 8C#	.	.
*	*clefF4	*
.	12B 12b	.
*	*^	*
8DD#XL 8D#X	12BBL 12B	4G#	<
.	12BB 12B	.	.
8EEJ 8E	.	.	.
.	12BBJ 12B	.	.
*	*v	*v	*
8BBBL 8BB	8.r	.
8GGG#J 8GG#	.	.
.	16BB# 16F# 16B#	.
=79	=79	=79
8GGG#L 8GG#	6C# 6E 6c#	.
8AAA#J 8AA#	.	.
.	12G# 12g#	.
8BBB#L 8BB#	12GG#L 12E 12G#	<
.	12GG# 12E 12G#	.
8CC#J 8C#	.	.
.	12GG#J 12E 12G#	.
8BBB#L 8BB#	12AAnL 12E 12G# 12An	.
.	12AA 12E 12G# 12A	.
8CC#J 8C#	.	.
.	12AAJ 12E 12G# 12A	.
!!LO:LB:g=original
=80	=80	=80
8CC#L 8C#	12AA#XL 12E 12G# 12A#X	.
.	12AA# 12E 12G# 12A#	.
8CC##J 8C##	.	.
.	12AA#J 12E 12G# 12A#	.
*	*clefG2	*
12A#L 12e 12a#	12g#L 12ee 12gg# 12aa#	f
12A# 12e 12a#	12g# 12ee 12gg# 12aa#	.
12A#J 12e 12a#	12g#J 12ee 12gg# 12aa#	.
*^	*^	*
4AA# 4CC##	8AA#L	4G# 4e	12a#L	sf
.	.	.	12g#	.
.	8A#J	.	.	.
.	.	.	12G#J	.
*	*	*v	*v	*
*v	*v	*	*
*	*clefF4	*
=81	=81	=81
8CC#XL 8C#X	12AA#L 12E 12G# 12A#	<
.	12AA# 12E 12G# 12A#	.
8CC##J 8C##	.	.
.	12AA#J 12E 12G# 12A#	.
8CC##L 8C##	12BBL 12F# 12G# 12B	.
.	12BB 12F# 12G# 12B	.
8DD#J 8D#	.	.
.	12BBJ 12F# 12G# 12B	.
8CC##L 8C##	12BB#L 12F# 12G# 12B#	.
.	12BB# 12F# 12G# 12B#	.
8DD#J 8D#	.	.
.	12BB#J 12F# 12G# 12B#	.
=82	=82	=82
8DD#L 8D#	12C#XL 12An 12c#X	.
.	12C# 12A 12c#	.
8EEJ 8E	.	.
.	12C#J 12A 12c#	.
*clefG2	*clefG2	*
12c#L 12e 12an 12ee	12cc#L 12aan 12ccc#	.
12c# 12e 12a 12ee	12cc# 12aa 12ccc#	.
12c#J 12e 12a 12ee	12cc#J 12aa 12ccc#	.
*^	*^	*
*clefF4	*clefF4	*	*	*
4EE 4C#	8C#L	4An 4f#	12cc#L	.
.	.	.	12an	.
.	8c#J	.	.	.
.	.	.	12AJ	.
*	*	*v	*v	*
*v	*v	*	*
*	*clefF4	*
!!LO:LB:g=original
=83	=83	=83
8EEL 8E	12C##L 12G# 12c##	<
.	12C## 12G# 12c##	.
8BBBJ 8BB	.	.
.	12C##J 12G# 12c##	.
*	*clefG2	*
8AAA#XL 8AA#X	12G#L 12c##X 12g#	.
.	12G# 12c## 12g#	.
8EEEJ 8EE	.	.
.	12G#J 12c## 12g#	.
8DDD#L 8DD#	12F##L 12d# 12f##	.
.	12F## 12d# 12f##	.
*8ba	*	*
8AAAA#J 8AAA#	.	.
.	12F##J 12d# 12f##	.
*X8ba	*	*
=84	=84	=84
8EEL 8E	12G#L 12c## 12g#	.
.	12G# 12c## 12g#	.
8BBBJ 8BB	.	.
.	12G#J 12c## 12g#	.
8AAA#L 8AA#	12c##L 12g# 12cc##	.
.	12c## 12g# 12cc##	.
8EEEJ 8EE	.	.
.	12c##J 12g# 12cc##	.
8DDD#L 8DD#	12d#L 12f## 12dd#	.
.	12d# 12f## 12dd#	.
*8ba	*	*
8AAAA#J 8AAA#	.	.
.	12d#J 12f## 12dd#	.
*X8ba	*	*
=85	=85	=85
8EEL 8E	12c##L 12g# 12cc##	.
.	12c## 12g# 12cc##	.
8BBBJ 8BB	.	.
.	12c##J 12g# 12cc##	.
8AAA#L 8AA#	12d#L 12f## 12dd#	.
.	12d# 12f## 12dd#	.
8DDD#J 8DD#	.	.
.	12d#J 12f## 12dd#	.
8BBL 8B	12c##L 12g# 12cc##	.
.	12c## 12g# 12cc##	.
8EEJ 8E	.	.
.	12c##J 12g# 12cc##	.
!!LO:LB:g=original
=86	=86	=86
8DD#L 8D#	12d#L 12f## 12dd#	.
.	12d# 12f## 12dd#	.
8AA#J 8A#	.	.
.	12d#J 12f## 12dd#	.
8DD#L 8D#	12d#L 12f## 12dd#	.
.	12d# 12f## 12dd#	.
8AAA#J 8AA#	.	.
.	12d#J 12f## 12dd#	.
8DDD# 8DD#	16d#LL 16f## 16dd#	.
.	16d#JJ 16f## 16dd#	.
16r	16r	.
16GGG# 16GG#	[16D# [16G# [16d#	ff
=87	=87	=87
6DD# 6D#	6D#] 6G#] 6d#]	.
12D# 12d#	12dd# 12ddd#	.
*clefG2	*	*
12BL 12e# 12b	12g#L 12dd# 12ee# 12gg#	.
12B 12e# 12b	12g# 12dd# 12ee# 12gg#	.
12BJ 12e# 12b	12g#J 12dd# 12ee# 12gg#	.
8.r	8.r	.
*clefF4	*	*
16AAA# 16AA#	[16D# [16F## [16c# [16d#	.
=88	=88	=88
6DD# 6D#	6D#] 6F##] 6c#] 6d#]	.
12D# 12d#	12dd# 12ddd#	.
*clefG2	*	*
12c#L 12d# 12cc#	12f##L 12dd# 12ff##	.
12c# 12d# 12cc#	12f## 12dd# 12ff##	.
12c#J 12d# 12cc#	12f##J 12dd# 12ff##	.
12r	12r	.
12r	12r	.
!!LO:LB:g=original
=-	=-	=-
*clefF4	*	*
*k[f#c#g#d#]	*k[f#c#g#d#]	*
!	!	!LO:DY:a=2
12BBL	12r	pp
=89	=89	=89
12E	6b 6ee 6gg#	.
12BJ	.	.
12EL	[12a [12b [12ff#X	.
12B	12aL] 12b] 12ff#]	.
12eJ	12g# 12b 12ee	.
12BL	12f#J 12b 12dd#	.
12e	6g# 6b 6ee	.
12bJ	.	.
12C#L	[12g# [12ee [12gg#	.
=90	=90	=90
12G#	6g#] 6ee] 6gg#]	.
12eJ	.	.
12G#L	12gg#	.
12e	12g#L	>
12bJ	12g#	)
12eL	12g#J	]
12G#	4r	.
12C#J	.	.
12D#L	.	.
=91	=91	=91
12G#	6dd# 6gg# 6bb	.
12d#J	.	.
12G#L	[12cc# [12dd# [12aa#X	.
12d#	12cc#L] 12dd#] 12aa#]	.
12g#J	12b 12dd# 12gg#	.
12d#L	12a#J 12dd# 12ff##	.
12g#	6b 6dd# 6gg#	.
12dd#J	.	.
12EL	[12g# [12ddn [12bb	.
!!LO:LB:g=original
=92	=92	=92
12B	6g#] 6ddn] 6bb]	.
12g#J	.	.
12eL	12bb	.
12g#	12eeL	>
12ddnJ	12ee	)
12g#L	12eeJ	]
12B	6r	.
12EJ	.	.
12AAL	[12an [12ee [12ccc#	.
=93	=93	=93
12E	6a] 6ee] 6ccc#]	.
12eJ	.	.
12EL	12ee 12aa 12ccc#	.
12A	12cc#L	>
12aJ	12cc#	)
12AL	12cc#J	]
12e	6r	.
12eeJ	.	.
12FF#L	[12a [12ee [12cccn	.
=94	=94	=94
12E	6a] 6ee] 6ccc]	.
12eJ	.	.
12EL	12ee 12aa 12cccn	.
12A	12ccnL	.
12aJ	12cc	.
12AL	12ccJ	.
12e	4r	.
12eeJ	.	.
12BBL	.	.
!!LO:LB:g=original
=95	=95	=95
12G#	12r	<
12eJ	12bL	.
*clefG2	*	*
12BL	12gg#J	.
12b	12dd#L	mf
12g#J	12ee	.
12eL	12ccc#XJ	.
12g#J 12ee	12bbL	.
12r	12.aa	.
12r	.	.
.	24gg#J	.
=96	=96	=96
12r	6gg#	>
12BL	.	)
12aJ	[12ee#	)
12dd#L	6ee#]	]
12b	.	.
12aJ	[12gg#	.
4bb	12gg#L]	.
.	12ff#	.
.	12gg#J	.
=97	=97	=97
*	*^	*
4c# [4g#	4ee	12eenL	.
.	.	12bb	.
.	.	12aa#J	.
4G# 4d# 4g#]	4b	12gg#L	mf
.	.	12aa#	.
.	.	12ddd#J	.
4r	4r	12bbL	.
.	.	12.aa	.
.	.	24gg#J	.
*	*v	*v	*
=98	=98	=98
12r	8gg#L	.
12BL	.	.
.	[8ee#J	.
12aJ	.	.
12dd#L	8ee#L]	>
12b	.	.
.	[8gg#J	.
12aJ	.	.
4bb	12gg#L]	.
.	12ff#	.
.	12gg#J	.
!!LO:LB:g=original
=99	=99	=99
*^	*	*
4e 4a	12bL	[4een	p
.	12cc#	.	.
.	12eJ	.	.
4c# 4a	4a	12eeL]	.
.	.	12ff#	.
.	.	12ccc#J	.
*v	*v	*	*
16F#LL	12aaL	.
16c#	.	.
.	12gg#	.
16a	.	.
.	12ff#J	.
16eeJJ	.	.
=100	=100	=100
*^	*	*
4c# 4f#	12g#L	[4cc#	.
.	12a	.	.
.	12c#J	.	.
4A 4f#	4f#	12cc#L]	<
.	.	12dd#	(
.	.	12eeJ	[
*v	*v	*	*
*clefF4	*	*
16C#LL	12gg#L	>
16A	.	)
.	12ff#	)
16e	.	)
.	12cc#J	]
16aJJ	.	.
=101	=101	=101
12r	12g#L	.
12FF#L	12a	.
12C#J	12cc#J	.
12AL	8eeL	<
12C#	.	.
.	[8dd#J	.
12AJ	.	.
12eL	8dd#L]	.
12BB	.	.
.	8cc#J	.
12AJ	.	.
=102	=102	=102
12eL	4.cc#	.
12F#	.	.
12c#J	.	>
12d#L	.	.
12A	.	.
.	8b	.
12BJ	.	.
*^	*	*
*clefG2	*clefG2	*	*
12c#L	[4a [4b	8gg#L	.
12e	.	.	.
.	.	8ff#J	.
12d#J	.	.	.
!!LO:LB:g=original
=103	=103	=103	=103
12dnL	4a] 4b]	8aaL	pp
12E	.	.	.
.	.	8ff#J	.
[12eJ	.	.	.
12eL]	4c# 4a 4cc#	12aaL	.
12E	.	12.ee	.
12AJ	.	.	.
.	.	24ccc#J	.
*v	*v	*	*
12eL	4ccc#	.
12a	.	.
12eeJ	.	.
=104	=104	=104
*^	*	*
12dnL	4a 4b	12r	.
12E	.	12aaL	.
[12eJ	.	12ff#J	.
12eL]	4c# 4a 4cc#	12aaL	.
12E	.	12.ee	.
12AJ	.	.	.
.	.	24aaaJ	.
*v	*v	*	*
12e\L	4aaa	.
12cc#	.	.
12ccc#J	.	.
*clefF4	*	*
=105	=105	=105
12FF#L	12r	.
12C#	12cc#L	.
12AJ	12dd#XJ	.
12f#L	8eeL	<
12e	.	.
.	[8dd#J	.
12F#J	.	.
12aL	6dd#]	.
12A	.	.
[12GG#J	12cc#	.
=106	=106	=106
*^	*^	*
12GG#L] 12D#	12ryy	12r	[4b	.
12B	[6B	12r	.	.
12BBJ	.	12d# 12f#	.	>
8E	8B]	8e 8g#	12b]	]
.	.	.	12BL	.
8r	8ryy	8ryy	.	.
.	.	.	12c#J	.
*	*	*v	*v	*
*v	*v	*	*
4r	12eL	.
.	12f#	.
.	12aJ	.
*clefG2	*	*
!!LO:LB:g=original
=107	=107	=107
*	*^	*
12r	16bLL	[4ee	pp
.	16cc#	.	.
12eL	.	.	.
.	16b	.	.
12c#J	.	.	.
.	16aJJ	.	.
[4F#	4e	16eeLL]	.
.	.	16ff#	.
.	.	16ddd#	.
.	.	16ccc#JJ	.
16F#LL]	4r	12aaL	.
16c#	.	.	.
.	.	12gg#	.
16a	.	.	.
.	.	12ff#J	.
16eeJJ	.	.	.
*clefF4	*	*	*
=108	=108	=108	=108
12r	16g#LL	[4cc#	.
.	16a	.	.
12eL	.	.	.
.	16g#	.	.
12AJ	.	.	.
.	16f#JJ	.	.
[4C#	4c#	20cc#LL]	.
.	.	20b#	<
.	.	20cc#	(
.	.	20dd#	(
.	.	20eeJJ	(
20C#LL]	4r	12gg#L	[
20A	.	.	>
.	.	12ff#	)
20e	.	.	)
*clefG2	*	*	*
20a	.	.	)
.	.	12cc#J	]
20eeJJ	.	.	.
*	*v	*v	*
*clefF4	*	*
=109	=109	=109
16FF#LL	20g#LL	.
.	20a	.
16C#	.	.
.	20bn	.
16c#	.	.
.	20a	.
16C#JJ	.	.
.	20cc#JJ	.
16ALL	8eeL	.
16e	.	.
16F#	[8dd#J	.
16eJJ	.	.
12aL	6dd#]	.
12e	.	.
12F#J	12cc#	.
!!LO:LB:g=original
=110	=110	=110
16BBLL	4.cc#	.
16A	.	.
16e	.	.
16F#JJ	.	.
16c#LL	.	.
16d#	.	.
16A	8b	.
16BJJ	.	.
*^	*	*
*clefG2	*clefG2	*	*
16aLL	4a 4b	8gg#L	.
16c#	.	.	.
16e	.	8ff#J	.
16d#JJ	.	.	.
=111	=111	=111	=111
16dnLL	4a 4b	20aaLL	.
.	.	20gg#	.
16E	.	.	.
.	.	20bb	.
16B	.	.	.
.	.	20aa	.
[16eJJ	.	.	.
.	.	20ff#JJ	.
16eLL]	4c# 4a 4cc#	20aaLL	.
.	.	20gg#	.
16E	.	.	.
.	.	20ff#	.
16A	.	.	.
.	.	20.ee	.
16eJJ	.	.	.
.	.	40ccc#JJ	.
*v	*v	*	*
16aLL	4ccc#	.
16e	.	.
16a	.	.
16eeJJ	.	.
!!LO:LB:g=original
=112	=112	=112
*^	*	*
16dnLL	4a 4b	28r	.
!	!	!	!LO:DY:b=1
.	.	28aaLL	ppp
16E	.	.	.
.	.	28ff#	.
.	.	28ccc#	.
16B	.	.	.
.	.	28bb	.
.	.	28aa	.
[16eJJ	.	.	.
.	.	28ff#JJ	.
16eLL]	4c# 4a 4cc#	32aaLLL	.
.	.	32gg#	.
16E	.	32ggn	.
.	.	32aa	.
16A	.	32ff#	.
.	.	32ffn	.
16eJJ	.	32.ee	.
.	.	64aaaJJJ	.
*v	*v	*	*
16cc#LL	4aaa	.
16e	.	.
16cc#	.	.
16ccc#JJ	.	.
*clefF4	*	*
=113	=113	=113
16FF#\LL	12r	.
16C#	.	.
.	12cc#L	<
16A	.	(
.	12dd#XJ	(
16C#JJ	.	(
16ALL	8eeL	(
16e	.	(
16F#	[8dd#J	[
16eJJ	.	>
12aL	8dd#L]	)
12e	.	)
.	8cc#J	]
12F#J	.	.
=114	=114	=114
*^	*^	*
16r	16ryy	12r	2.f#	.
8.BB	16BBLL	.	.	.
.	.	12c#L	.	<
.	16A	.	.	(
.	.	12d#J	.	(
.	16F#JJ	.	.	(
*v	*v	*	*	*
4a	8eL	.	[
.	[8d#J	.	>
8r	8d#L]	.	)
8C# 8A	8c#J	.	]
*	*v	*v	*
!!LO:LB:g=original
=115	=115	=115
16FF#\LL	12r	.
16C#	.	.
.	12cc#L	<
16A	.	(
.	12dd#J	(
16C#JJ	.	(
16ALL	6ff#	(
16e	.	[
16F#	.	.
.	12ee	>
16eJJ	.	)
12aL	12eeL	)
12e	12dd#	)
12F#J	12cc#J	]
=116	=116	=116
*^	*^	*
16r	16ryy	12r	[2.f#	.
8.BB	16BBLL	.	.	.
.	.	12c#L	.	<
.	16A	.	.	(
.	.	12d#J	.	(
.	16F#JJ	.	.	(
*v	*v	*	*	*
4a	6f#	.	[
.	12e	.	>
8r	12eL	.	)
.	12d#	.	)
8C# 8A	.	.	)
.	12c#J	.	]
*	*v	*v	*
=117	=117	=117
16AALL	12f#\L]	.
16C#	.	.
.	12cc#	.
16c#	.	.
.	12dd#J	.
16C#JJ	.	.
16F#LL	12eeL	.
16f#	.	.
.	12dd#	.
16F#	.	.
.	12cc#J	.
16C#JJ	.	.
16G#LL	4g#	.
16e	.	.
16G#	.	.
16C#JJ	.	.
!!LO:LB:g=original
=118	=118	=118
16AALL	12f#L	.
16C#	.	.
.	12cc#	.
16c#	.	.
.	12dd#J	.
16C#JJ	.	.
16F#LL	12eeL	.
16f#	.	.
.	12dd#	.
16F#	.	.
.	12cc#J	.
16C#JJ	.	.
16G#LL	[4b	.
16e	.	.
16G#	.	.
16C#JJ	.	.
=119	=119	=119
20CC#LL	16bLL]	.
20C#	.	.
.	16cc#	.
20e	.	.
.	16gg#	.
20G#	.	.
.	16eeJJ	.
20C#JJ	.	.
20FF#LL	4a	.
20C#	.	.
20e	.	.
20A	.	.
20C#JJ	.	.
20CC#LL	12bL	.
20C#	.	.
.	12cc#	.
20e	.	.
20G#	.	.
.	12bJ	.
20C#JJ	.	.
=120	=120	=120
24FFF#LL 24FF#\	12aL	.
24C#	.	.
24A	12cc#	.
24C#	.	.
24A	12aaJ	.
24eJJ	.	.
24F#LL	12eeL	.
24c#	.	.
24a	12ff#	.
24e	.	.
24f#	12ddd#J	.
24aJJ	.	.
*	*^	*
24r	4a 4dd#	12ccc#L	.
24BBBLL 24BB	.	.	.
24d#	.	12bb	.
24A	.	.	.
24B	.	12gg#J	.
24bJJ	.	.	.
!!LO:LB:g=original
=121	=121	=121	=121
24EEELL 24EE	12g#L	12ff#L	.
24BB	.	.	.
24B	12b	12dd#	.
24F#	.	.	.
24G#	12eJ	12eeJ	.
24c#JJ	.	.	.
24BLL	4r	12ff#L	.
*clefG2	*	*	*
24B	.	.	.
24b	.	12ee	.
24f#	.	.	.
24g#	.	12cc#J	.
24eeJJ	.	.	.
*clefF4	*	*	*
24r	12b\L	8bL	mf
24f#LL	.	.	.
24e	12g#	.	.
24c#	.	8gg#J	.
24B	12e<J	.	.
24BBJJ	.	.	.
=122	=122	=122	=122
*	*8va	*8va	*
24EEE 24EE 24BB	2aa	12r	.
*clefG2	*	*	*
24BLL	.	.	.
!	!	!	!LO:DY:a=1
24a	.	12ccc#L	pp
24e	.	.	.
24f#	.	12aaaJ	.
24cc#JJ	.	.	.
24r	.	12eeeL	.
24cc#LL	.	.	.
24aa	.	12fff#	.
24ee	.	.	.
24ff#	.	12cccc#J	.
24ccc#JJ	.	.	.
16dd#LL	8gg#L	24r	.
.	.	24bbLL	.
16a	.	.	.
.	.	24bbb	.
*clefF4	*	*	*
16B	8aaJ	24ccc#	.
.	.	24ddd#	.
16BBJJ	.	.	.
.	.	24fff#JJ	.
!!LO:LB:g=original
=123	=123	=123	=123
12EEEL 12EE 12BB	8bbL	24r	.
.	.	24ddd#LL	.
12G#	.	24bbb	.
.	8ccc#J	24eee	.
12eJ	.	24fff#	.
.	.	24ggg#JJ	.
*clefG2	*	*	*
12bL 12gg#	8ddd#L	24r	.
.	.	24bbbLL	.
12g#	.	24fff#	.
.	8eeeJ	24eee	.
12BJ	.	24bb	.
.	.	24gg#JJ	.
*	*X8va	*X8va	*
*clefF4	*	*	*
16c#LL	8bbL	24r	.
.	.	24g#LL	.
16B	.	.	.
.	.	24dd#	.
16E	8gg#J	24b	.
.	.	24cc#	.
16BBJJ	.	.	.
.	.	24eeJJ	.
=124	=124	=124	=124
12EEEL 12EE 12BB	8.aaL	24r	.
.	.	24cc#LL	.
*cleffG2	*	*	*
12B	.	24aa	.
.	.	24ee	.
12aJ	.	24ff#	.
.	16gg#J	.	.
.	.	24ccc#JJ	.
*^	*	*	*
12c#L	12eL	4ff#	24r	.
.	.	.	24cccc#LL	.
12F#	12f#	.	24fff#	.
.	.	.	24bbb	.
12eJ	12cc#J	.	24aaa	.
.	.	.	24ccc#JJ	.
4d#	4b	4gg#	24r	.
.	.	.	24aLL	.
.	.	.	24dd#	.
.	.	.	24b	.
.	.	.	24cc#	.
.	.	.	24dd#JJ	.
*	*	*v	*v	*
*v	*v	*	*
*clefF4	*	*
!!LO:LB:g=original
=125	=125	=125
12EEEL 12EE	24g# 24ee	.
.	24BLL	.
12BB	24b	.
.	24f#	.
12BJ	24g#	.
.	24cc#JJ	.
4G# 4e 4g#	24b	.
.	24bLL	.
.	24bb	.
.	24ff#	.
.	24gg#	.
.	24ccc#JJ	.
8B/L	24bbLL	.
.	24gg#	.
.	24ee	.
8g#>J	24cc#	.
.	24b	.
.	[24BJJ	.
=126	=126	=126
*	*^	*
12EEEL 12EE 12BB	2B] 2a	24r	.
*	*8va	*8va	*
.	.	24ccc#\LL	.
*clefG2	*	*	*
12cc#	.	24aaa	.
.	.	24eee	.
12aaJ	.	24fff#	.
.	.	24cccc#JJ	.
*^	*	*	*
12cc#L	12eeL	.	24ccc#\	.
.	.	.	24eeee\LL	.
12f#	12ff#	.	24aaa	.
.	.	.	24dddd#	.
12eeJ	12ccc#J	.	24cccc#	.
.	.	.	24fff#JJ	.
16ALL 16d#	8g#L	4dd# 4bb	24r	.
.	.	.	24bbLL	.
*clefF4	*clefG2	*	*	*
16BBJJ	.	.	.	.
.	.	.	24bbb	.
*clefG2	*clefG2	*	*	*
8r	8aJ	.	24ccc#	.
.	.	.	24ddd#	.
.	.	.	24fff#JJ	.
!!LO:LB:g=original
=127	=127	=127	=127	=127
16G#LL 16B 16e	8bL	4gg# 4bb	24r	.
.	.	.	24ddd#LL	.
*clefF4	*clefG2	*	*	*
16EEJJ 16BB	.	.	.	.
.	.	.	24bbb	.
*clefG2	*clefG2	*	*	*
8r	8cc#J	.	24eee	.
.	.	.	24fff#	.
.	.	.	24ggg#JJ	.
*	*	*v	*v	*
2B 2g#	8dd#L	24r	.
.	.	24bbbLL	.
.	.	24fff#	.
.	8eeJ	24eee	.
.	.	24bb	.
.	.	24gg#JJ	.
.	8bL	24r	.
.	.	24gg#LL	.
.	.	24ddd#	.
.	8g#J	24bb	.
.	.	24ccc#	.
.	.	24eeeJJ	.
*	*	*X8va	*
*clefF4	*clefF4	*	*
=128	=128	=128	=128
20aLL	8..aL	36a 36ee 36bb	.
.	.	36eeeLL	.
20B	.	.	.
.	.	36ddd#	.
.	.	36ccc#	.
20E	.	.	.
.	.	36bb	.
.	.	36gg#	.
20BB	.	.	.
.	.	36ff#	.
.	.	36ee	.
20EEJJ	.	.	.
.	32g#J	.	.
.	.	36cc#JJ	.
20f#LL	4f#	36a 36ee 36ccc#	.
.	.	36eeeLL	.
20B	.	.	.
.	.	36ddd#	.
.	.	36ccc#	.
20E	.	.	.
.	.	36aa	.
.	.	36gg#	.
20BB	.	.	.
.	.	36ff#	.
.	.	36ee	.
20EEJJ	.	.	.
.	.	36cc#JJ	.
!!LO:LB:g=original
=-	=-	=-	=-
20g#LL	4g#	36a 36dd# 36bb	.
.	.	36eeeLL	.
20B	.	.	.
.	.	36ddd#	.
.	.	36ccc#	.
20E	.	.	.
.	.	36bb	.
.	.	36gg#	.
20BB	.	.	.
.	.	36ee	.
.	.	36dd#	.
20EEJJ	.	.	.
.	.	36bJJ	.
=129	=129	=129	=129
20eLL	4e	36b 36gg# 36bb 36eee	.
.	.	36ggg#LL	.
20B	.	.	.
.	.	36bb	.
.	.	36fff#	.
20E	.	.	.
.	.	36ggg#	.
.	.	36bbb	.
20BB	.	.	.
.	.	36eee	.
.	.	36bb	.
20EEJJ	.	.	.
.	.	36gg#JJ	.
*v	*v	*	*
20BBLL	36ccc#LL	.
.	36gg#	.
20E	.	.
.	36b	.
.	36ff#	.
20E	.	.
.	36gg#	.
.	36bb	.
20B	.	.
.	36ee	.
.	36b	.
20eJJ	.	.
.	36g#JJ	.
4r	36cc#LL	.
.	36g#	.
.	36B	.
.	36f#	.
.	36g#	.
.	36b	.
.	36e	.
.	36B	.
.	36G#JJ	.
!!LO:LB:g=original
=130	=130	=130
*^	*	*
*	*	*	*^
*	*	*	*	*^
!	!	!	!LO:DY:b=2	!LO:DY:a=2	!LO:DY:b=1
20ALL	8..AL	48BLLL	p	mp	pp <
.	.	48e	.	.	(
.	.	48b	.	.	(
20BB	.	.	.	.	(
.	.	48b	.	.	(
.	.	48ee	.	.	(
20EE	.	.	.	.	(
.	.	48dd#	.	.	(
.	.	48cc#	.	.	[ >
.	.	48b	.	.	)
20EE	.	.	.	.	)
.	.	48g#	.	.	)
.	.	48f#	.	.	)
20GGG#JJ	.	.	.	.	)
.	.	48e	.	.	)
.	32G#J	.	.	.	)
.	.	48c#JJJ	.	.	]
20F#LL	4F#	48r	.	.	.
.	.	48c#LLL	.	.	<
.	.	48a	.	.	(
20BB	.	.	.	.	(
.	.	48cc#	.	.	(
.	.	48ee	.	.	(
20EE	.	.	.	.	(
.	.	48dd#	.	.	(
.	.	48cc#	.	.	[ >
.	.	48a	.	.	)
20EE	.	.	.	.	)
.	.	48g#	.	.	)
.	.	48f#	.	.	)
20EEEJJ	.	.	.	.	)
.	.	48e	.	.	)
.	.	48c#JJJ	.	.	]
20G#LL	4G#	48BLLL	.	.	<
.	.	48d#	.	.	(
.	.	48b	.	.	(
20BB	.	.	.	.	(
.	.	48b	.	.	(
.	.	48ee	.	.	(
20EE	.	.	.	.	(
.	.	48dd#	.	.	(
.	.	48cc#	.	.	[ >
.	.	48b	.	.	)
20EE	.	.	.	.	)
.	.	48g#	.	.	)
.	.	48e	.	.	)
20EEEJJ	.	.	.	.	)
.	.	48d#	.	.	)
.	.	48BJJJ	.	.	]
*	*	*	*	*v	*v
*	*	*	*v	*v
!!LO:LB:g=original
=131	=131	=131	=131
20ELL	4E	36B 36g# 36b 36ee	.
.	.	36gg#LL	.
20BB	.	.	.
.	.	36b	.
.	.	36ff#	.
20EE	.	.	.
.	.	36gg#	.
.	.	36bb	.
20EE	.	.	.
.	.	36ee	.
.	.	36b	.
20EEEJJ	.	.	.
.	.	36g#JJ	.
*v	*v	*	*
24EELL	36cc#LL	.
.	36g#	.
24EE	.	.
.	36B	.
24BB	36f#	.
.	36g#	.
24G#JJ	.	.
.	36b	.
12rC	36e	.
.	36B	.
.	36G#JJ	.
*^	*	*
20G#LL	4G#	48BLLL	.
.	.	48d#	.
.	.	48b	.
20BB	.	.	.
.	.	48b	.
.	.	48ee	.
20EE	.	.	.
.	.	48dd#	.
.	.	48cc#	.
.	.	48b	.
20EE	.	.	.
.	.	48g#	.
.	.	48e	.
20EEEJJ	.	.	.
.	.	48d#	.
.	.	48BJJJ	.
!!LO:LB:g=original
=132	=132	=132	=132
20ELL	4E	36B 36g# 36b 36ee	.
.	.	36gg#LL	.
20BB	.	.	.
.	.	36b	.
.	.	36ff#	.
20EE	.	.	.
.	.	36gg#	.
.	.	36bb	.
20EE	.	.	.
.	.	36ee	.
.	.	36b	.
20EEEJJ	.	.	.
.	.	36g#JJ	.
*v	*v	*	*
24EELL	36cc#LL	.
.	36g#	.
24EE	.	.
.	36B	.
24BB	36f#	.
.	36g#	.
24G#JJ	.	.
.	36b	.
12rC	36e	.
.	36B	.
.	36G#JJ	.
*^	*	*
20G#LL	4G#	48BLLL	.
.	.	48d#	.
.	.	48b	.
20BB	.	.	.
.	.	48b	.
.	.	48ee	.
20EE	.	.	.
.	.	48dd#	.
.	.	48cc#	.
.	.	48b	.
20EE	.	.	.
.	.	48g#	.
.	.	48e	.
20EEEJJ	.	.	.
.	.	48d#	.
.	.	48BJJJ	.
!!LO:LB:g=original
=133	=133	=133	=133
20ELL	4E	36B 36g# 36b 36ee	.
.	.	36gg#LL	.
20BB	.	.	.
.	.	36b	.
.	.	36ff#	.
20EE	.	.	.
.	.	36gg#	.
.	.	36bb	.
20EE	.	.	.
.	.	36ee	.
.	.	36b	.
20EEEJJ	.	.	.
.	.	36g#JJ	.
*v	*v	*	*
24EELL	36cc#LL	.
.	36g#	.
24EE	.	.
.	36B	.
24BB	36f#	.
.	36g#	.
24G#JJ	.	.
.	36b	.
12r	36e	.
.	36B	.
.	36G#JJ	.
*	*clefF4	*
[4EEE [4EE	36c#LL	.
.	36G#	.
.	36BB	.
.	36F#	.
.	36G#	.
.	36B	.
.	36E	pp
.	36B	.
.	36G#JJ	.
!!LO:LB:g=original
=134	=134	=134
*	*^	*
2EEE_ 2EE_	36c#LL	4ryy	.
.	36G#	.	.
.	36BB	.	.
.	36F#	.	.
.	36G#	.	.
.	36B	.	.
.	36E	.	.
.	36G#	.	.
.	36BB	.	.
.	36F#	6ryy	.
.	36G#	.	.
.	36B	.	.
.	36E	.	.
.	36G#	.	.
.	[36BB	.	.
.	36F#	12BB_	.
.	36G#	.	.
.	[36BJJ	.	.
*	*v	*v	*
8.EEE] 8.EE]	8.BB] 8.E 8.B\]	.
16EEE 16EE	[16BB [16E [16B	pp
=135	=135	=135
6BB	6BB] 6E] 6B]	.
*	*clefG2	*
12BB 12B	12b 12bb\	.
*	*^	*
.	8qcc#	.	.
4G# 4g#	4b	12eL 12ee	>
.	.	12e 12ee	)
.	.	12eJ 12ee	]
*	*v	*v	*
8.r	8.r	.
*	*clefF4	*
16EEE 16EE	[16BB [16E [16B	.
=136	=136	=136
6BB	6BB] 6E] 6B]	.
*	*clefG2	*
12BB 12B	12b 12bb\	.
*	*^	*
.	8qcc#	.	.
4G# 4g#	4b	12eL 12ee	.
.	.	12e 12ee	.
.	.	12eJ 12ee	.
*	*v	*v	*
4r	4r	.
==	==	==
*-	*-	*-
!!!system-decoration: {(*)}
!!!filter: flipper -a
!!!RDF**kern: < = below
!!!RDF**kern: > = above
!!!RDF**dynam: > = dim.
!!!ENC: Bryan Jacob Bell
!!!END: November 2021 to April 2022
!!!PED: Günter Philipp
!!!PTL: Ausgewählte Klavierwerke (Edition Peters)
